svg/transfer_up.svg

<svg xmlns="http://www.w3.org/2000/svg" viewBox="0 0 24 24"><path d="M8 21v-2h8v2zm0-4v-2h8v2zm0-4v-2h8v2zm11-4H5l7-7z"/></svg>

<?xml version="1.0" encoding="UTF-8"?><!DOCTYPE svg PUBLIC "-//W3C//DTD SVG 1.1//EN" "http://www.w3.org/Graphics/SVG/1.1/DTD/svg11.dtd"><svg xmlns="http://www.w3.org/2000/svg" xmlns:xlink="http://www.w3.org/1999/xlink" version="1.1" id="mdi-transfer-up" width="24" height="24" viewBox="0 0 24 24"><path d="M8,21V19H16V21H8M8,17V15H16V17H8M8,13V11H16V13H8M19,9H5L12,2L19,9Z" /></svg>
